X:1
T:Narrow and Strait
T:Narrow and Strait
T:George Frederick Root
T:George Frederick Root, 1891
T:Public Domain Courtesy of the Cyber Hymnal™
C:George Frederick Root
Z:Public Domain
Z:Courtesy of the Cyber Hymnal™
%%score ( 1 2 ) 3
L:1/8
Q:1/4=130
M:3/4
K:Eb
V:1 treble 
V:2 treble 
V:3 bass 
V:1
 [EG]2 [E^F]2 [EG]2 | [GB]2 [EG]2 z2 | [CE]2 [CA]2 [Ec]2 | [EB]4 z2 | [DG]2 [DF]2 [^C=E]2 | %5
w: 1.~Why do you|lin- ger,|why do you|stay|In the broad|
w: 2.~Do you find|plea- sures,|last- ing and|pure,|In the gay|
w: 3.~Come, then, be-|lov- èd,|no lon- ger|stay;|Leave the broad|
 [DF]2 [DG]2 [DF]2 | E2 [Ee]2 [Ec]2 | [EB]4 z2 | [EG]2 [E^F]2 [EG]2 | [GB]2 [EG]2 z2 | %10
w: road, that most|dan- ger- ous|way?|While right be-|fore you,|
w: scenes that the|thought- less al-|lure?|While your Re-|deem- er,|
w: high- way, O|leave it to-|day;|Make your de-|ci- sion,|
 [GB]2 [^F=A]2 [GB]2 | [Ac]4 z2 | [Ad]2 [Ac]2 [Fd]2 | [Ee]2 [EG]2 [E=A]2 | [EB]2 [Dc]2 [DB]2 | %15
w: nar- row and|strait,|Is the bright|path- way to|Heav’n’s pear- ly|
w: with love so|great,|Points to the|way that is|nar- row and|
w: O, do not|wait;|Take thou the|path- way so|nar- row and|
 E4 z2 ||"^Refrain" G2 F2 E2 | (B6- | B6-) | [EB]4 z2 | G2 F2 E2 | (B6- | B6-) | [EB]4 z2 | %24
w: gate?|||||||||
w: strait?|Nar- row and|strait,|||Nar- row and|strait|||
w: strait.|||||||||
 [Fd]2 [Ec]2 [DB]2 | [Ee]2 [EG]2 [E=A]2 | [EB]2 [Dc]2 [DB]2 | E4 z2 |] %28
w: ||||
w: ||||
w: ||||
V:2
 x6 | x6 | x6 | x6 | x6 | x6 | E2 x4 | x6 | x6 | x6 | x6 | x6 | x6 | x6 | x6 | E4 x2 || x6 | x6 | %18
 D2 E2 F2 | x6 | x6 | x6 | D2 E2 F2 | x6 | x6 | x6 | x6 | E4 x2 |] %28
V:3
 [E,B,]2 [E,=A,]2 [E,B,]2 | [E,E]2 [E,B,]2 z2 | [E,A,]2 [E,A,]2 [E,A,]2 | [E,G,]4 z2 | %4
w: ~ ~ ~|~ ~|~ ~ ~|~|
 [B,,B,]2 [B,,A,]2 [B,,G,]2 | [B,,A,]2 [B,,B,]2 [B,,A,]2 | [E,G,]2 [E,C]2 [E,A,]2 | [E,G,]4 z2 | %8
w: ~ ~ ~|~ ~ ~|~ ~ ~|~|
 [E,B,]2 [E,=A,]2 [E,B,]2 | [E,E]2 [E,B,]2 z2 | [E,E]2 [E,E]2 [E,E]2 | [A,,E]4 z2 | %12
w: ~ ~ ~|~ ~|~ ~ ~|~|
 [B,,B,]2 [B,,F,]2 [B,,A,]2 | [C,G,]2 [C,G,]2 [C,^F,]2 | [B,,G,]2 [B,,A,]2 [B,,A,]2 | [E,G,]4 z2 || %16
w: ~ ~ ~|~ ~ ~|~ ~ ~|~|
 z6 | z6 | [B,,F,]2 [B,,G,]2 [B,,A,]2 | [E,G,]4 z2 | z6 | z6 | [B,,F,]2 [B,,G,]2 [B,,A,]2 | %23
w: ||Nar- row and|strait,|||nar- row and|
 [E,G,]4 z2 | [B,,A,]2 [B,,A,]2 [B,,A,]2 | [C,G,]2 [C,G,]2 [C,^F,]2 | [B,,G,]2 [B,,A,]2 [B,,A,]2 | %27
w: strait,|Is the bright|path- way to|Heav’n’s pear- ly|
 [E,G,]4 z2 |] %28
w: gate.|

